X:634
T:
S:Efter »Florsen» i Burs.
R:kadrilj
O:Gotland, Burs
M:C
L:1/16
K:C
EF|G2G2 GcBA G2G2 GABc|d2G2 d2G2 cdef g2 EF|
G2G2 GcBA G2G2 GABc|d2G2 d2G2 c6:|
|:Bc|d2G2 F2F2 EGce g2 Bc|d2G2F2F2 EFGA G2EF|
G2G2 GcBA G2G2 GABc|d2G2 d2G2 c6:|
K:F
|:cB|A6 c2 f6 g2|a3g f2ed c6 ^c2|
d6 f2 e6 g2|b2c2e2g2 f6:|
|:ef|g2^fg b2ag =f2aa a2ef|g2^fg b2ag =f2aa a2 cB|
A6 c2 f6 a2|c'2c2e2g2 f6:|

